X: 3013
T: London Ladies.
%R: minuet, waltz (or jig)
B: Henry Playford "Apollo's Banquet", London 1687 (5th Edition)
F: https://archive.org/details/apollosbanquetco01rugg
Z: 2017 John Chambers <jc:trillian.mit.edu>
N: There's a 1/4 note missing at the end of each strain; fixed with a dot.
M: 3/2
L: 1/4
K: Bb
% - - - - - - - - - -
|:\
Bcdcde | dcBf2d | efgfde | c3c2d |\
Bcdedc | dcBb2a | gaf=efg | g3f3 ::
fgab2a | gfed2b | abgfga | a3g3 |\
fgbbdg | fgdc2d | BBffdg | c3HB3 |]
% - - - - - - - - - -

%%sep 1 1 500
%%sep 1 1 500

